assets/images/external-link-icon.svg

<svg width="16px" height="16px" viewBox="0 0 16 16" version="1.1" xmlns="http://www.w3.org/2000/svg" xmlns:xlink="http://www.w3.org/1999/xlink">
    <!-- Generator: Sketch 51.2 (57519) - http://www.bohemiancoding.com/sketch -->
    <desc>Created with Sketch.</desc>
    <defs></defs>
    <g id="desktop" stroke="none" stroke-width="1" fill="none" fill-rule="evenodd" opacity="0.315330616">
        <g id="01_Homepage" transform="translate(-610.000000, -1772.000000)" fill="#000000" fill-rule="nonzero">
            <g id="content" transform="translate(-1.000000, 735.000000)">
                <g id="community" transform="translate(0.000000, 722.000000)">
                    <g id="showcased-projects">
                        <g transform="translate(100.000000, 93.000000)">
                            <g id="Group-11" transform="translate(428.000000, 190.000000)">
                                <g id="noun_link_1119743" transform="translate(83.000000, 32.000000)">
                                    <g id="Group">
                                        <path d="M14.497561,13.795122 C14.497561,14.1853659 14.1853659,14.497561 13.795122,14.497561 L2.20487805,14.497561 C1.81463415,14.497561 1.50243902,14.1853659 1.50243902,13.795122 L1.50243902,2.20487805 C1.50243902,1.81463415 1.81463415,1.50243902 2.20487805,1.50243902 L6.77073171,1.50243902 L6.77073171,0.0975609756 L2.20487805,0.0975609756 C1.03414634,0.0975609756 0.0975609756,1.03414634 0.0975609756,2.20487805 L0.0975609756,13.795122 C0.0975609756,14.9658537 1.03414634,15.902439 2.20487805,15.902439 L13.795122,15.902439 C14.9658537,15.902439 15.902439,14.9658537 15.902439,13.795122 L15.902439,9.22926829 L14.497561,9.22926829 L14.497561,13.795122 Z" id="Shape"></path>
                                        <polygon id="Shape" points="9.22926829 0.0975609756 9.22926829 1.50243902 13.502439 1.50243902 7.9804878 7.02439024 8.97560976 8.0195122 14.497561 2.49756098 14.497561 6.77073171 15.902439 6.77073171 15.902439 0.0975609756"></polygon>
                                    </g>
                                </g>
                            </g>
                        </g>
                    </g>
                </g>
            </g>
        </g>
    </g>
</svg>

<svg height="16" viewBox="0 0 16 16" width="16" xmlns="http://www.w3.org/2000/svg"><g opacity=".315331"><path d="m14.497561 13.795122c0 .3902439-.3121951.702439-.702439.702439h-11.59024395c-.3902439 0-.70243903-.3121951-.70243903-.702439v-11.59024395c0-.3902439.31219513-.70243903.70243903-.70243903h4.56585366v-1.40487804h-4.56585366c-1.17073171 0-2.10731707.93658536-2.10731707 2.10731707v11.59024395c0 1.1707317.93658536 2.107317 2.10731707 2.107317h11.59024395c1.1707317 0 2.107317-.9365853 2.107317-2.107317v-4.56585371h-1.404878z"/><path d="m9.22926829.09756098v1.40487804h4.27317071l-5.5219512 5.52195122.99512196.99512196 5.52195124-5.52195122v4.27317073h1.404878v-6.67317073z"/></g></svg>
